X: 39587
T: Teelin, The
R: reel
M: 4/4
K: Amixolydian
|:A2 eg fdeA|(3Bcd ef ~g3 A|A2 eg fdfa|1 gedB eABG:|2 gedB eA A2||
|:a2 eg fdgf|eA ~A2 (3Bcd eg|a2 eg fdfa|1 gedB eABG:|2 gedB g2 fd||

